findly-builder/apps/searchassist/src/assets/icons/neg-thumb.svg

<svg width="16" height="16" viewBox="0 0 16 16" fill="none" xmlns="http://www.w3.org/2000/svg">
<path fill-rule="evenodd" clip-rule="evenodd" d="M8.54297 15.4272C8.87153 15.6851 9.27396 15.8058 9.68657 15.7878C9.74515 15.7852 9.80501 15.7801 9.86359 15.7711C10.3361 15.7057 10.7767 15.4426 11.0543 15.0652C11.3307 14.6866 11.4606 14.2104 11.3956 13.7343L11.2988 13.0772C11.2008 12.4033 11.053 11.7462 10.8416 11.1058L10.5156 10.1855L12.8792 10.2022C13.5147 10.2022 14.1018 9.92243 14.5093 9.42959C14.9168 8.95343 15.0798 8.31299 14.9665 7.67254L13.9222 1.7584C13.7427 0.739346 12.8627 7.72476e-05 11.8362 7.72476e-05H6.97912C6.19592 7.72476e-05 5.42927 0.132272 4.7123 0.410781C4.45123 0.509606 4.32133 0.789398 4.41939 1.05122C4.51745 1.31433 4.7938 1.44653 5.05487 1.3477C5.67379 1.11796 6.32709 1.00245 6.97912 1.00245H11.8528C12.4068 1.00245 12.8792 1.41316 12.9773 1.95606L14.0203 7.8702C14.0852 8.19876 13.9872 8.54272 13.7758 8.80583C13.5478 9.06894 13.2384 9.21654 12.8958 9.21654H9.84703C9.68402 9.21654 9.53757 9.29868 9.43951 9.43087C9.34145 9.56178 9.32617 9.72607 9.37457 9.87366L9.92854 11.451C10.1081 12.0093 10.2546 12.6177 10.3361 13.2248L10.4341 13.8819C10.4825 14.326 10.173 14.7367 9.73369 14.8021C9.52102 14.8188 9.30962 14.7687 9.13005 14.6378C8.96705 14.5069 8.85243 14.3093 8.82059 14.0962L8.72254 13.4391C8.39652 11.0891 7.10902 8.9868 5.16948 7.65586C4.94025 7.50826 4.63079 7.55703 4.48434 7.78806C4.33789 8.01779 4.38628 8.32967 4.61551 8.47727C6.32709 9.64393 7.46687 11.4998 7.74449 13.57L7.84255 14.2271C7.9075 14.7033 8.16856 15.1307 8.54297 15.4272ZM0 7.57356C0 7.85335 0.211401 8.06641 0.489023 8.06641H2.93414C3.21176 8.06641 3.42316 7.85335 3.42316 7.57356V0.509449C3.42316 0.229657 3.21176 0.0166035 2.93414 0.0166035H0.489023C0.211401 0.0166035 0 0.229657 0 0.509449C0 0.789241 0.211401 1.00229 0.489023 1.00229H2.44511V7.08072H0.489023C0.211401 7.08072 0 7.29377 0 7.57356Z" fill="#DD3646"/>
</svg>

<svg width="16" height="16" fill="none" xmlns="http://www.w3.org/2000/svg"><path fill-rule="evenodd" clip-rule="evenodd" d="M8.543 15.427a1.716 1.716 0 0 0 1.32.344 1.806 1.806 0 0 0 1.191-.706 1.84 1.84 0 0 0 .342-1.33l-.097-.658a11.588 11.588 0 0 0-.457-1.971l-.326-.92 2.363.016a2.1 2.1 0 0 0 1.63-.772c.408-.477.57-1.117.457-1.757l-1.044-5.915A2.12 2.12 0 0 0 11.836 0H6.98c-.783 0-1.55.132-2.267.41a.493.493 0 0 0-.293.641.487.487 0 0 0 .636.297 5.535 5.535 0 0 1 1.924-.346h4.874c.554 0 1.026.411 1.124.954L14.02 7.87c.065.329-.033.673-.244.936a1.15 1.15 0 0 1-.88.41H9.847a.508.508 0 0 0-.407.215.48.48 0 0 0-.065.443l.554 1.577c.18.558.326 1.167.407 1.774l.098.657a.838.838 0 0 1-.7.92.892.892 0 0 1-.604-.164.868.868 0 0 1-.31-.542l-.097-.657a8.405 8.405 0 0 0-3.554-5.783.491.491 0 0 0-.685.132c-.146.23-.098.542.132.69a7.345 7.345 0 0 1 3.128 5.092l.099.657c.064.476.326.904.7 1.2ZM0 7.574c0 .28.211.492.489.492h2.445a.482.482 0 0 0 .49-.492V.509a.482.482 0 0 0-.49-.492H.49A.482.482 0 0 0 0 .509c0 .28.211.493.489.493h1.956v6.079H.49a.482.482 0 0 0-.49.493Z" fill="#DD3646"/></svg>
